;FLAVOR:Marlin
;TIME:7109
;Filament used: 0m, 4.02211m
;Layer height: 0.3
;MINX:210.366
;MINY:53.157
;MINZ:0.2
;MAXX:315.529
;MAXY:246.153
;MAXZ:13.4
;Generated with StratosEngine 1.5.2
T1
M82 ;absolute extrusion mode
;Machine Model: Sigma D25 
;Materials used:  T1 PLA 
;Extruders used:  T1 0.4 
M141 S40 	;Set chamber temperature 
M140 S60 	;Heat build surface
M104 T1 S215	;Heat extruder 1
M190 S60 	;Wait until bed temperature reached 
M109 T1 S215	;Heat extruder 1 and wait
G21 		;metric values 
G90 		;absolute positioning 
M204 S2500 	;set default acceleration 
M205 X12.5 Y12.5 ;set default jerk 
M107 		;start with the fan off 
G28 X0 Y0 	;move X/Y to min endstops 
G28 Z0 		;move Z to min endstops 
G1 Z5 F200 	;safety Z axis movement

T1
G92 E0 		;set zero the extruded length 
G1 E10 F30
G92 E0 
G4 S2 		;stabilize hotend 
G1 E-0.5 F1000 
G92 E0

G4 P1
G4 P2
G4 P3

M141 S40
G92 E0
;LAYER_COUNT:45
;LAYER:0
M107
M204 S456
M205 X9.38 Y9.38
G1 F600 Z0.8
G0 F6000 X239.793 Y159.329 Z0.8
M204 S1425
;TYPE:SKIRT
G1 F600 Z0.2
G1 F1050 E0
G1 F1950 X240.683 Y158.21 E0.02152
G1 X241.824 Y157.103 E0.04544
G1 X242.406 Y156.688 E0.0562
G1 X242.406 Y143.843 E0.24949
G1 X241.671 Y144.527 E0.2646
G1 X240.892 Y145.65 E0.28517
G1 X239.882 Y146.653 E0.30659
G1 X239.875 Y146.659 E0.30673
G1 X239.809 Y156.725 E0.45821
G0 F1755 X239.793 Y159.329
M204 S456
G0 F6000 X239.96 Y159.943
M204 S1425
G1 F1950 X241.05 Y158.519 E0.4852
G1 X242.16 Y157.45 E0.50839
G1 X242.886 Y156.954 E0.52162
G1 X242.886 Y142.45 E0.73988
G1 X242.153 Y143.42 E0.75818
G1 X241.273 Y144.273 E0.77662
G1 X240.369 Y145.521 E0.79981
G1 X239.396 Y146.432 E0.81987
G1 X239.306 Y160.239 E1.02765
G0 F1755 X239.3 Y161.318
G0 X239.96 Y159.943
M204 S456
G0 F6000 X240.656 Y160.651
M204 S1425
G1 F1950 X241.785 Y159.138 E1.05605
G1 X242.827 Y158.148 E1.07768
G1 X243.846 Y157.451 E1.09626
G1 X243.846 Y137.904 E1.39041
G1 X243.404 Y138.706 E1.40419
G1 X243.084 Y140.027 E1.42465
G1 X242.236 Y141.693 E1.45278
G1 X241.377 Y142.846 E1.47442
G1 X240.559 Y143.571 E1.49087
G1 X239.81 Y144.699 E1.51124
G1 X238.439 Y145.978 E1.53946
G1 X238.311 Y165.684 E1.83601
G1 X238.812 Y164.046 E1.86178
G1 X239.381 Y162.898 E1.88106
G0 F1755 X239.45 Y162.758
G0 X240.12 Y161.903
G0 X240.656 Y160.651
M204 S456
G0 F6000 X241.194 Y160.684
M204 S1425
G1 F1950 X242.152 Y159.447 E1.90461
G1 X243.159 Y158.499 E1.92542
G1 X244.18 Y157.787 E1.94415
G1 X244.326 Y157.623 E1.94746
G1 X244.326 Y130 E2.36314
G1 X244.565 Y127.966 E2.39396
G1 X244.928 Y126.631 E2.41478
G1 X245.761 Y124.947 E2.44305
G1 X246.528 Y123.796 E2.46387
G1 X247.738 Y122.579 E2.48969
G1 X248.832 Y121.733 E2.5105
G1 X250.208 Y121.011 E2.53389
G1 X251.503 Y120.525 E2.5547
G1 X253.049 Y120.239 E2.57836
G1 X254.429 Y120.159 E2.59916
G1 X256.293 Y120.414 E2.62747
G1 X257.627 Y120.776 E2.64827
G1 X259.16 Y121.533 E2.674
G1 X260.31 Y122.301 E2.69481
G1 X261.433 Y123.376 E2.71821
G1 X262.305 Y124.449 E2.73901
G1 X263.062 Y125.811 E2.76246
G1 X263.58 Y127.093 E2.78327
G1 X263.935 Y128.958 E2.81184
G1 X264.026 Y129.999 E2.82757
G1 X264.026 Y157.613 E3.24311
G1 X264.466 Y158.035 E3.25229
G1 X265.114 Y158.446 E3.26383
G1 X265.109 Y158.075 E3.26942
G1 X265.109 Y145.032 E3.4657
G1 X265.116 Y144.737 E3.47014
G1 X265.187 Y143.293 E3.49189
G1 X265.245 Y142.708 E3.50074
G1 X265.461 Y141.252 E3.52289
G1 X265.576 Y140.674 E3.53176
G1 X265.933 Y139.249 E3.55386
G1 X266.102 Y138.69 E3.56265
G1 X266.596 Y137.306 E3.58477
G1 X266.822 Y136.759 E3.59367
G1 X267.451 Y135.428 E3.61583
G1 X267.727 Y134.911 E3.62465
G1 X268.481 Y133.651 E3.64674
G1 X268.808 Y133.162 E3.65559
G1 X269.683 Y131.98 E3.67772
G1 X270.055 Y131.525 E3.68657
G1 X271.04 Y130.436 E3.70867
G1 X271.458 Y130.017 E3.71757
G1 X272.547 Y129.029 E3.7397
G1 X272.997 Y128.659 E3.74847
G1 X274.177 Y127.781 E3.7706
G1 X274.664 Y127.455 E3.77942
G1 X275.923 Y126.697 E3.80153
G1 X276.448 Y126.415 E3.8105
G1 X277.777 Y125.785 E3.83263
G1 X278.318 Y125.56 E3.84145
G1 X279.704 Y125.062 E3.86361
G1 X280.267 Y124.891 E3.87247
G1 X281.692 Y124.532 E3.89458
G1 X282.266 Y124.417 E3.90339
G1 X283.722 Y124.198 E3.92555
G1 X284.308 Y124.139 E3.93441
G1 X285.776 Y124.064 E3.95653
G1 X286.359 Y124.062 E3.96531
G1 X287.828 Y124.13 E3.98744
G1 X288.423 Y124.188 E3.99643
G1 X289.88 Y124.402 E4.01859
G1 X290.454 Y124.515 E4.0274
G1 X291.88 Y124.869 E4.04951
G1 X293.155 Y125.273 E4.06963
G1 X309.622 Y131.138 E4.33268
G1 X310.863 Y131.749 E4.3535
G1 X311.93 Y132.627 E4.37429
G1 X312.768 Y133.727 E4.3951
G1 X313.333 Y134.99 E4.41593
G1 X313.593 Y136.348 E4.43673
G1 X313.609 Y136.79 E4.44339
G1 X313.609 Y166.79 E4.89484
G1 X313.45 Y168.164 E4.91566
G1 X312.98 Y169.464 E4.93646
G1 X312.225 Y170.623 E4.95727
G1 X311.225 Y171.578 E4.97808
G1 X310.033 Y172.278 E4.99888
G1 X309.622 Y172.442 E5.00554
G1 X293.155 Y178.307 E5.26859
G1 X292.874 Y178.4 E5.27305
G1 X291.491 Y178.817 E5.29479
G1 X290.933 Y178.956 E5.30344
G1 X289.489 Y179.244 E5.3256
G1 X288.902 Y179.331 E5.33453
G1 X287.438 Y179.475 E5.35666
G1 X286.863 Y179.504 E5.36533
G1 X285.394 Y179.507 E5.38743
G1 X284.793 Y179.478 E5.39649
G1 X283.304 Y179.331 E5.41901
G1 X282.716 Y179.243 E5.42795
G1 X281.297 Y178.959 E5.44973
G1 X280.74 Y178.82 E5.45837
G1 X279.332 Y178.395 E5.4805
G1 X278.777 Y178.197 E5.48937
G1 X277.418 Y177.636 E5.51149
G1 X276.872 Y177.378 E5.52058
G1 X275.555 Y176.672 E5.54307
G1 X275.06 Y176.375 E5.55175
G1 X273.855 Y175.571 E5.57355
G1 X273.38 Y175.219 E5.58245
G1 X272.224 Y174.271 E5.60495
G1 X271.788 Y173.877 E5.61379
G1 X270.765 Y172.855 E5.63555
G1 X269.953 Y171.911 E5.65429
G1 X269.681 Y172.93 E5.67016
G1 X269.559 Y174.308 E5.69098
G1 X269.093 Y175.778 E5.71419
G1 X268.476 Y177.015 E5.73499
G1 X267.742 Y178.063 E5.75424
G1 X267.156 Y179.315 E5.77504
G1 X266.206 Y180.544 E5.79842
G1 X265.2 Y181.493 E5.81923
G1 X264.394 Y181.989 E5.83347
G1 X274.102 Y181.989 E5.97956
G1 X276.238 Y182.254 E6.01195
G1 X277.57 Y182.628 E6.03277
G1 X279.086 Y183.376 E6.05821
G1 X280.238 Y184.141 E6.07902
G1 X281.46 Y185.332 E6.1047
G1 X282.318 Y186.416 E6.1255
G1 X283.111 Y187.926 E6.15117
G1 X283.592 Y189.222 E6.17197
G1 X283.879 Y190.898 E6.19756
G1 X283.937 Y192.279 E6.21836
G1 X283.69 Y193.97 E6.24408
G1 X283.317 Y195.302 E6.26489
G1 X282.564 Y196.826 E6.29047
G1 X281.798 Y197.978 E6.31129
G1 X281.244 Y198.561 E6.3234
G1 X293.453 Y198.054 E6.50728
G1 X294.832 Y198.156 E6.52809
G1 X296.151 Y198.572 E6.5489
G1 X297.34 Y199.278 E6.56971
G1 X298.276 Y200.166 E6.58913
G1 X301.828 Y204.351 E6.67173
G1 X302.596 Y205.502 E6.69255
G1 X303.079 Y206.797 E6.71335
G1 X303.254 Y208.169 E6.73417
G1 X303.109 Y209.544 E6.75497
G1 X302.654 Y210.85 E6.77578
G1 X301.912 Y212.016 E6.79658
G1 X300.922 Y212.982 E6.8174
G1 X300.217 Y213.451 E6.83014
G1 X287.173 Y220.858 E7.05587
G1 X285.721 Y221.448 E7.07946
G1 X268.231 Y225.998 E7.35141
G1 X260.6 Y235.16 E7.53085
G1 X259.599 Y236.113 E7.55164
G1 X258.406 Y236.812 E7.57245
G1 X257.501 Y237.127 E7.58687
G1 X230.887 Y244.051 E8.0007
G1 X229.517 Y244.242 E8.02152
G1 X228.14 Y244.115 E8.04233
G1 X226.829 Y243.677 E8.06313
G1 X225.653 Y242.949 E8.08394
G1 X224.675 Y241.972 E8.10475
G1 X223.946 Y240.797 E8.12555
G1 X223.506 Y239.486 E8.14636
G1 X223.378 Y238.109 E8.16718
G1 X223.568 Y236.74 E8.18797
G1 X224.066 Y235.45 E8.20878
G1 X224.766 Y234.404 E8.22772
G1 X251.966 Y201.75 E8.86726
G1 X252.023 Y201.689 E8.86852
G1 X234.104 Y201.689 E9.13817
G1 X232.006 Y201.434 E9.16997
G1 X230.674 Y201.065 E9.19077
G1 X229.19 Y200.344 E9.2156
G1 X228.032 Y199.587 E9.23642
G1 X226.836 Y198.447 E9.26128
G1 X225.964 Y197.374 E9.28209
G1 X225.169 Y195.917 E9.30707
G1 X224.665 Y194.629 E9.32788
G1 X224.352 Y193.009 E9.35271
G1 X224.264 Y191.629 E9.37352
G1 X224.457 Y189.992 E9.39833
G1 X224.791 Y188.65 E9.41914
G1 X225.472 Y187.151 E9.44391
G1 X226.198 Y185.975 E9.46471
G1 X227.31 Y184.745 E9.48966
G1 X228.36 Y183.844 E9.51048
G1 X229.801 Y183.01 E9.53554
G1 X231.076 Y182.474 E9.55635
G1 X232.677 Y182.121 E9.58102
G1 X233.882 Y181.994 E9.59926
G1 X235.078 Y181.989 E9.61725
G1 X243.947 Y181.989 E9.75072
G1 X242.754 Y181.168 E9.77251
G1 X241.713 Y180.028 E9.79574
G1 X240.949 Y178.875 E9.81656
G1 X240.41 Y177.713 E9.83583
G1 X239.619 Y176.579 E9.85664
G1 X239.032 Y175.151 E9.87987
G1 X238.711 Y173.806 E9.90068
G1 X238.573 Y172.47 E9.92089
G1 X238.234 Y171.129 E9.94171
G1 X238.182 Y169.657 E9.96387
G1 X238.341 Y168.283 E9.98469
G1 X238.671 Y167.072 E10.00358
G1 X238.792 Y165.695 E10.02438
G1 X239.263 Y164.21 E10.04782
G1 X239.882 Y162.974 E10.06863
G1 X239.908 Y162.937 E10.06931
G0 F1755 X240.609 Y161.937
G0 X241.194 Y160.684
M204 S456
G0 F6000 X241.396 Y161.302
M204 S1425
G1 F1950 X242.519 Y159.756 E10.09806
G1 X243.489 Y158.852 E10.11801
G1 X244.38 Y158.334 E10.13352
G1 X244.806 Y157.803 E10.14377
G1 X244.806 Y130 E10.56216
G1 X245.04 Y128.037 E10.59191
G1 X245.394 Y126.76 E10.61185
G1 X246.189 Y125.165 E10.63867
G1 X246.929 Y124.066 E10.65861
G1 X248.073 Y122.922 E10.68295
G1 X249.406 Y121.963 E10.70766
G1 X251.036 Y121.171 E10.73494
G1 X253.132 Y120.712 E10.76722
G1 X253.792 Y120.637 E10.77722
G1 X256.221 Y120.889 E10.81397
G1 X257.499 Y121.243 E10.83393
G1 X258.941 Y121.96 E10.85816
G1 X260.28 Y122.922 E10.88297
G1 X261.544 Y124.211 E10.91014
G1 X262.641 Y126.04 E10.94223
G1 X263.131 Y127.273 E10.9622
G1 X263.462 Y129.041 E10.98927
G1 X263.546 Y129.999 E11.00374
G1 X263.546 Y157.805 E11.42218
G1 X263.967 Y158.329 E11.43229
G1 X264.955 Y158.92 E11.44962
G1 X265.618 Y159.524 E11.46311
G1 X265.59 Y158.159 E11.48366
G1 X265.589 Y145.032 E11.6812
G1 X265.596 Y144.761 E11.68528
G1 X265.667 Y143.317 E11.70703
G1 X265.72 Y142.778 E11.71518
G1 X265.936 Y141.322 E11.73734
G1 X266.041 Y140.791 E11.74548
G1 X266.398 Y139.366 E11.76759
G1 X266.554 Y138.851 E11.77569
G1 X267.048 Y137.467 E11.7978
G1 X267.256 Y136.964 E11.80599
G1 X267.885 Y135.633 E11.82814
G1 X268.139 Y135.158 E11.83625
G1 X268.893 Y133.898 E11.85835
G1 X269.193 Y133.448 E11.86648
G1 X270.068 Y132.266 E11.88862
G1 X270.411 Y131.847 E11.89676
G1 X271.396 Y130.758 E11.91886
G1 X271.781 Y130.373 E11.92705
G1 X272.87 Y129.385 E11.94918
G1 X273.284 Y129.044 E11.95725
G1 X274.464 Y128.166 E11.97939
G1 X274.912 Y127.866 E11.9875
G1 X276.171 Y127.108 E12.00961
G1 X276.654 Y126.849 E12.01786
G1 X277.983 Y126.219 E12.03999
G1 X278.48 Y126.012 E12.0481
G1 X279.866 Y125.514 E12.07026
G1 X280.384 Y125.356 E12.07841
G1 X281.809 Y124.997 E12.10052
G1 X282.337 Y124.891 E12.10863
G1 X283.793 Y124.672 E12.13078
G1 X284.332 Y124.618 E12.13894
G1 X285.8 Y124.543 E12.16106
G1 X286.337 Y124.542 E12.16914
G1 X287.806 Y124.61 E12.19127
G1 X288.353 Y124.663 E12.19954
G1 X289.81 Y124.877 E12.2217
G1 X290.338 Y124.981 E12.2298
G1 X291.764 Y125.335 E12.25191
G1 X292.994 Y125.725 E12.27132
G1 X309.461 Y131.59 E12.53438
G1 X310.648 Y132.182 E12.55434
G1 X311.659 Y133.039 E12.57428
G1 X312.437 Y134.114 E12.59425
G1 X312.936 Y135.342 E12.6142
G1 X313.129 Y136.79 E12.63618
G1 X313.129 Y166.79 E13.08763
G1 X312.97 Y168.106 E13.10758
G1 X312.501 Y169.347 E13.12754
G1 X311.75 Y170.44 E13.1475
G1 X310.76 Y171.322 E13.16745
G1 X309.461 Y171.99 E13.18944
G1 X292.994 Y177.855 E13.45249
G1 X292.736 Y177.94 E13.45657
G1 X291.353 Y178.357 E13.47831
G1 X290.839 Y178.485 E13.48628
G1 X289.395 Y178.773 E13.50844
G1 X288.855 Y178.853 E13.51666
G1 X287.391 Y178.997 E13.53879
G1 X286.862 Y179.024 E13.54676
G1 X285.393 Y179.027 E13.56887
G1 X284.84 Y179 E13.5772
G1 X283.351 Y178.853 E13.59972
G1 X282.81 Y178.773 E13.60795
G1 X281.391 Y178.489 E13.62972
G1 X280.879 Y178.361 E13.63767
G1 X279.471 Y177.936 E13.6598
G1 X278.96 Y177.753 E13.66797
G1 X277.601 Y177.192 E13.69009
G1 X277.099 Y176.955 E13.69845
G1 X275.782 Y176.249 E13.72093
G1 X275.326 Y175.976 E13.72893
G1 X274.121 Y175.172 E13.75073
G1 X273.685 Y174.848 E13.7589
G1 X272.529 Y173.9 E13.7814
G1 X272.128 Y173.537 E13.78954
G1 X271.105 Y172.515 E13.8113
G1 X270.739 Y172.112 E13.81949
G1 X269.791 Y170.957 E13.84198
G1 X269.664 Y170.786 E13.84519
G1 X269.335 Y172.29 E13.86835
G1 X269.177 Y172.642 E13.87416
G1 X269.158 Y173.796 E13.89153
G1 X268.641 Y175.615 E13.91998
G1 X268.044 Y176.798 E13.93993
G1 X267.371 Y177.609 E13.95578
G1 X266.954 Y178.697 E13.97332
G1 X265.838 Y180.235 E14.00191
G1 X264.869 Y181.14 E14.02187
G1 X263.973 Y181.662 E14.03747
G1 X263.282 Y182.469 E14.05346
G1 X274.102 Y182.469 E14.21628
G1 X276.163 Y182.728 E14.24754
G1 X277.438 Y183.093 E14.2675
G1 X278.869 Y183.804 E14.29155
G1 X279.97 Y184.543 E14.3115
G1 X281.12 Y185.672 E14.33575
G1 X281.938 Y186.715 E14.3557
G1 X282.683 Y188.144 E14.37995
G1 X283.138 Y189.389 E14.3999
G1 X283.405 Y190.973 E14.42407
G1 X283.454 Y192.298 E14.44402
G1 X283.216 Y193.895 E14.46832
G1 X282.852 Y195.17 E14.48827
G1 X282.136 Y196.608 E14.51245
G1 X281.396 Y197.709 E14.53241
G1 X280.264 Y198.862 E14.55673
G1 X280.003 Y199.093 E14.56197
G1 X293.473 Y198.534 E14.76485
G1 X294.795 Y198.638 E14.7848
G1 X296.054 Y199.055 E14.80476
G1 X297.177 Y199.76 E14.82472
G1 X297.911 Y200.477 E14.84016
G1 X301.463 Y204.662 E14.92276
G1 X302.193 Y205.769 E14.94271
G1 X302.638 Y207.018 E14.96267
G1 X302.773 Y208.337 E14.98262
G1 X302.589 Y209.65 E15.00257
G1 X302.098 Y210.882 E15.02253
G1 X301.326 Y211.96 E15.04248
G1 X300.32 Y212.824 E15.06244
G1 X299.98 Y213.034 E15.06845
G1 X286.936 Y220.441 E15.29418
G1 X285.6 Y220.983 E15.31588
G1 X267.962 Y225.571 E15.59014
G1 X260.232 Y234.853 E15.77191
G1 X259.267 Y235.762 E15.79186
G1 X258.113 Y236.416 E15.81182
G1 X257.38 Y236.662 E15.82346
G1 X230.766 Y243.586 E16.23729
G1 X229.452 Y243.763 E16.25724
G1 X228.133 Y243.622 E16.2772
G1 X226.886 Y243.171 E16.29716
G1 X225.783 Y242.435 E16.31711
G1 X224.887 Y241.457 E16.33707
G1 X224.251 Y240.294 E16.35702
G1 X223.91 Y239.012 E16.37698
G1 X223.884 Y237.687 E16.39692
G1 X224.176 Y236.393 E16.41689
G1 X224.767 Y235.206 E16.43684
G1 X225.135 Y234.711 E16.44612
G1 X252.335 Y202.057 E17.08566
G1 X253.227 Y201.209 E17.10418
G1 X234.104 Y201.209 E17.39195
G1 X232.08 Y200.96 E17.42264
G1 X230.804 Y200.599 E17.4426
G1 X229.404 Y199.914 E17.46605
G1 X228.298 Y199.183 E17.486
G1 X227.171 Y198.103 E17.50949
G1 X226.34 Y197.07 E17.52944
G1 X225.593 Y195.691 E17.55304
G1 X225.115 Y194.454 E17.573
G1 X224.825 Y192.923 E17.59645
G1 X224.746 Y191.6 E17.61639
G1 X224.933 Y190.054 E17.63983
G1 X225.26 Y188.768 E17.65979
G1 X225.907 Y187.355 E17.68318
G1 X226.609 Y186.23 E17.70314
G1 X227.663 Y185.071 E17.72671
G1 X228.674 Y184.212 E17.74667
G1 X230.037 Y183.428 E17.77034
G1 X231.262 Y182.92 E17.79029
G1 X232.775 Y182.591 E17.81359
G1 X235.08 Y182.469 E17.84833
G1 X245.065 Y182.469 E17.99859
G1 X244.386 Y181.667 E18.0144
G1 X243.398 Y181.076 E18.03173
G1 X242.08 Y179.719 E18.06019
G1 X241.353 Y178.61 E18.08015
G1 X240.985 Y177.614 E18.09613
G1 X240.255 Y176.713 E18.11358
G1 X239.483 Y174.987 E18.14203
G1 X239.182 Y173.696 E18.16198
G1 X239.176 Y172.655 E18.17764
G1 X238.781 Y171.48 E18.1963
G1 X238.662 Y169.657 E18.22379
G1 X238.821 Y168.341 E18.24374
G1 X239.175 Y167.355 E18.2595
G1 X239.193 Y166.206 E18.2768
G1 X239.714 Y164.374 E18.30546
G1 X240.134 Y163.546 E18.31943
G0 F1755 X240.314 Y163.191
G0 X240.982 Y162.388
G0 X241.396 Y161.302
M204 S456
G0 F6000 X241.931 Y161.324
M204 S1425
G1 F1950 X242.886 Y160.065 E18.34321
G1 X243.817 Y159.207 E18.36226
G1 X244.774 Y158.594 E18.37936
G1 X245.286 Y157.994 E18.39123
G1 X245.286 Y130 E18.8125
G1 X245.515 Y128.109 E18.84116
G1 X245.86 Y126.89 E18.86023
G1 X246.616 Y125.384 E18.88559
G1 X247.33 Y124.337 E18.90466
G1 X248.408 Y123.266 E18.92753
G1 X249.625 Y122.39 E18.95009
G1 X251.229 Y121.611 E18.97692
G1 X253.215 Y121.185 E19.00749
G1 X253.845 Y121.115 E19.01703
G1 X256.15 Y121.363 E19.05192
G1 X257.369 Y121.708 E19.07098
G1 X258.723 Y122.387 E19.09377
G1 X259.944 Y123.265 E19.11641
G1 X261.188 Y124.534 E19.14315
G1 X262.219 Y126.27 E19.17353
G1 X262.681 Y127.45 E19.1926
G1 X262.99 Y129.125 E19.21823
G1 X263.066 Y129.999 E19.23143
G1 X263.066 Y157.99 E19.65266
G1 X263.774 Y158.76 E19.6684
G1 X264.841 Y159.443 E19.68746
G1 X265.909 Y160.591 E19.71106
G1 X266.237 Y161.035 E19.71936
G1 X266.088 Y159.337 E19.74501
G1 X266.069 Y158.075 E19.76401
